libs/ui/packages/crypto-icons/src/svg/HUSH.svg

<svg width="24" height="24" viewBox="0 0 24 24" fill="none">
<path fill-rule="evenodd" clip-rule="evenodd" d="M11.2551 13.993C11.2551 13.648 11.2566 13.3038 11.2544 12.9595C11.2536 12.8635 11.2814 12.79 11.3706 12.751C11.4531 12.715 11.5394 12.7405 11.6114 12.8245C11.8259 13.075 12.0389 13.327 12.2526 13.579C12.3276 13.6668 12.4034 13.7538 12.4761 13.8445C12.4932 13.8659 12.5032 13.8922 12.5046 13.9195C12.5061 14.2833 12.5069 14.647 12.5054 15.01C12.5074 15.1701 12.4489 15.325 12.3418 15.4438C12.2346 15.5627 12.0865 15.6368 11.9271 15.6513C11.7679 15.6615 11.6106 15.611 11.4871 15.51C11.3635 15.409 11.2828 15.2649 11.2611 15.1068C11.2544 15.0655 11.2551 15.0228 11.2551 14.9808V13.993ZM11.2574 7.23553C11.2566 7.22053 11.2551 7.20628 11.2551 7.19128V5.14228C11.2559 4.82728 11.4719 4.56178 11.7644 4.51003C11.8546 4.49324 11.9474 4.49658 12.0362 4.51981C12.1249 4.54304 12.2075 4.58559 12.2779 4.64441C12.3483 4.70323 12.4049 4.77687 12.4436 4.86008C12.4823 4.9433 12.5021 5.03402 12.5016 5.12578C12.5091 5.82403 12.5046 6.52303 12.5061 7.22128L12.5024 7.25728C12.3569 7.00828 12.1559 6.88378 11.8814 6.88453C11.6099 6.88453 11.4074 7.00453 11.2574 7.23553ZM11.2551 16.6953C11.4081 16.9278 11.6121 17.0463 11.8859 17.0455C12.1589 17.0448 12.3576 16.9203 12.5061 16.6893V18.4248C12.5054 18.595 12.5106 18.7668 12.4956 18.9348C12.4811 19.0951 12.405 19.2435 12.2833 19.3488C12.1616 19.4541 12.0038 19.5081 11.8431 19.4995C11.6846 19.4889 11.536 19.4186 11.4272 19.3029C11.3183 19.1871 11.2574 19.0344 11.2566 18.8755C11.2529 18.2058 11.2551 17.536 11.2551 16.8655V16.6953ZM12.5061 10.0758V11.3215C12.5061 11.44 12.4686 11.5045 12.3786 11.5405C12.3321 11.5597 12.2805 11.5632 12.2318 11.5505C12.1831 11.5378 12.1399 11.5095 12.1086 11.47L11.5656 10.834C11.4719 10.7245 11.3781 10.6158 11.2859 10.504C11.2682 10.4828 11.2577 10.4566 11.2559 10.429C11.2544 9.89353 11.2536 9.35728 11.2559 8.82178C11.2549 8.66362 11.3134 8.51087 11.4199 8.39388C11.5263 8.27689 11.6728 8.20421 11.8304 8.19028C12.1266 8.15728 12.4206 8.37778 12.4896 8.68828C12.5009 8.74003 12.5046 8.79403 12.5046 8.84728C12.5061 9.25678 12.5061 9.66628 12.5061 10.0758ZM13.8044 7.54303V5.87803C13.8059 5.57653 13.9776 5.33053 14.2446 5.24653C14.6496 5.11828 15.0546 5.42428 15.0569 5.86528C15.0591 6.28078 15.0569 6.69628 15.0569 7.11103V9.20728C15.0569 9.51703 14.8709 9.76753 14.5866 9.84478C14.2169 9.94453 13.8396 9.67228 13.8089 9.28303C13.8061 9.24484 13.8049 9.20656 13.8051 9.16828V7.54303H13.8044ZM10.0214 15.5703V17.494C10.0242 17.6444 9.97345 17.7908 9.87823 17.9072C9.78302 18.0235 9.64954 18.1023 9.50163 18.1293C9.14163 18.1983 8.78238 17.9058 8.77188 17.5315C8.76888 17.4243 8.77113 17.317 8.77113 17.2098V13.645C8.77113 13.3458 8.96313 13.093 9.24213 13.021C9.33461 12.9977 9.4312 12.9958 9.52452 13.0156C9.61784 13.0353 9.70541 13.0761 9.78053 13.1349C9.85566 13.1936 9.91635 13.2688 9.95796 13.3546C9.99957 13.4404 10.021 13.5346 10.0206 13.63C10.0229 14.2765 10.0206 14.9238 10.0206 15.5703H10.0214ZM10.0214 8.48578V11.11C10.0242 11.2556 9.97683 11.3976 9.88723 11.5124C9.79763 11.6271 9.67127 11.7075 9.52938 11.74C9.43848 11.7594 9.34442 11.7583 9.25401 11.7368C9.16359 11.7153 9.07907 11.674 9.00658 11.6159C8.93408 11.5578 8.87541 11.4842 8.83482 11.4006C8.79423 11.317 8.77273 11.2255 8.77188 11.1325C8.76813 10.753 8.77113 10.3743 8.77038 9.99478V5.86528C8.77038 5.55628 8.97138 5.29828 9.26013 5.23303C9.35193 5.21288 9.44708 5.21365 9.53854 5.23528C9.63001 5.25692 9.71542 5.29886 9.78847 5.358C9.86151 5.41714 9.92031 5.49196 9.9605 5.57692C10.0007 5.66188 10.0212 5.7548 10.0206 5.84878C10.0229 6.52303 10.0206 7.19653 10.0206 7.87078L10.0214 8.48578ZM13.8044 14.6253V11.7753C13.8044 11.491 13.9259 11.2803 14.1794 11.1618C14.5859 10.9735 15.0419 11.2743 15.0569 11.734V17.47C15.0569 17.7835 14.8776 18.0325 14.5949 18.1135C14.2244 18.22 13.8404 17.9485 13.8089 17.5578C13.806 17.5178 13.8048 17.4778 13.8051 17.4378V14.6238L13.8044 14.6253ZM17.6249 11.7258V16.1808C17.6285 16.3292 17.5803 16.4743 17.4884 16.591C17.3965 16.7076 17.2668 16.7886 17.1216 16.8198C16.7526 16.9 16.3851 16.6053 16.3746 16.2205V7.28053C16.3746 6.99178 16.5194 6.76153 16.7639 6.65953C17.1764 6.48703 17.6241 6.79753 17.6241 7.25803V11.725L17.6249 11.7258ZM7.62513 11.719V16.1808C7.62513 16.4958 7.43013 16.7485 7.13613 16.8183C6.76113 16.9083 6.38538 16.6128 6.37488 16.219V7.26628C6.37488 6.95953 6.55863 6.71053 6.83988 6.63253C6.93214 6.60828 7.02874 6.60545 7.12226 6.62427C7.21579 6.64308 7.30377 6.68305 7.37948 6.74109C7.45519 6.79914 7.51662 6.87374 7.55906 6.95918C7.60151 7.04461 7.62385 7.13863 7.62438 7.23403C7.62813 7.72528 7.62513 8.21728 7.62513 8.70928V11.7183V11.719Z" fill="#292929"/>
</svg>

<svg width="24" height="24" viewBox="0 0 24 24" fill="none"><path fill="#292929" fill-rule="evenodd" d="M11.255 13.993q.002-.518 0-1.033c-.001-.097.026-.17.116-.209.082-.036.168-.01.24.074q.322.376.642.754.113.131.223.265a.13.13 0 0 1 .029.075q.002.546 0 1.091a.636.636 0 0 1-.578.641.63.63 0 0 1-.666-.544c-.007-.041-.006-.084-.006-.126zm.002-6.757-.002-.045V5.142c0-.315.217-.58.51-.632a.623.623 0 0 1 .737.616c.007.698.003 1.397.004 2.095l-.004.036c-.145-.249-.346-.373-.62-.372-.272 0-.475.12-.625.35m-.002 9.46c.153.232.357.35.63.35.274-.001.473-.126.621-.357v1.736c0 .17.005.342-.01.51a.62.62 0 0 1-.653.565.63.63 0 0 1-.586-.625q-.004-1.004-.002-2.01zm1.251-6.62v1.245c0 .119-.037.184-.127.22a.23.23 0 0 1-.27-.071l-.543-.636q-.142-.163-.28-.33a.13.13 0 0 1-.03-.075q-.003-.804 0-1.607a.63.63 0 0 1 .574-.632c.297-.033.59.188.66.498a1 1 0 0 1 .015.16zm1.298-2.533V5.878c.002-.301.174-.547.44-.631.406-.129.81.177.813.618q.002.624 0 1.246v2.096a.64.64 0 0 1-.47.638.627.627 0 0 1-.778-.562l-.004-.115V7.543m-3.783 8.027v1.924a.634.634 0 0 1-.52.635c-.36.07-.719-.223-.73-.598q-.002-.16 0-.321v-3.565c0-.3.192-.552.471-.624a.625.625 0 0 1 .779.609q.002.97 0 1.94m0-7.084v2.624a.634.634 0 0 1-.492.63.626.626 0 0 1-.757-.607c-.004-.38 0-.759-.002-1.138v-4.13c0-.309.201-.567.49-.632a.626.626 0 0 1 .76.616c.003.674 0 1.348 0 2.022zm3.783 6.14v-2.85c0-.285.122-.496.375-.614.407-.189.863.112.878.572v5.736c0 .314-.18.563-.462.643a.626.626 0 0 1-.786-.555l-.004-.12v-2.814zm3.82-2.9v4.455a.64.64 0 0 1-.502.639.63.63 0 0 1-.747-.6V7.28c0-.288.144-.518.389-.62.412-.173.86.138.86.598zm-9.999-.007v4.462a.634.634 0 0 1-.489.637c-.375.09-.75-.205-.761-.599V7.266c0-.306.184-.555.465-.633a.625.625 0 0 1 .784.601c.004.491.001.983.001 1.475z" clip-rule="evenodd"/></svg>
